packages/ffe-icons/icons/filled/sm/water_medium.svg

<svg xmlns="http://www.w3.org/2000/svg" height="20" viewBox="0 -960 960 960" width="20"><path d="M268.231-434.23q43-23.385 89.807-35.577 46.808-12.192 96.193-12.192 28.615 0 56.423 4.307 27.807 4.308 54.423 12.308 32.538 9.385 60.615 14.385 28.077 5 52.231 5h15.846L736.308-792H223.307l44.924 357.77Zm46.154 318.229q-23.922 0-42.692-15.885-18.769-15.884-22.384-40.192l-77.615-612.461q-3.231-23.922 13.192-41.691 16.422-17.769 39.96-17.769h510.308q23.538 0 39.96 17.769 16.423 17.769 13.192 41.691l-77.23 612.461q-3.616 24.308-22.577 40.192-18.962 15.885-42.884 15.885h-331.23Z"/></svg>

<svg xmlns="http://www.w3.org/2000/svg" height="20" viewBox="0 -960 960 960" width="20"><path d="M268.23-434.23q43-23.38 89.81-35.58Q404.85-482 454.23-482q28.62 0 56.42 4.31 27.81 4.31 54.43 12.31Q597.62-456 625.69-451q28.08 5 52.23 5h15.85l42.54-346h-513l44.92 357.77ZM314.39-116q-23.93 0-42.7-15.89-18.77-15.88-22.38-40.19l-77.62-612.46q-3.23-23.92 13.2-41.69Q201.31-844 224.85-844h510.3q23.54 0 39.96 17.77 16.43 17.77 13.2 41.69l-77.23 612.46q-3.62 24.31-22.58 40.19Q669.54-116 645.61-116H314.39Z"/></svg>
